icons/linear-new-other-paper-plane-s-promotion.svg

<svg xmlns="http://www.w3.org/2000/svg" width="32px" height="32px" viewBox="0 0 32 32" version="1.1">
    <title>linear-new-other-paper-plane-s-promotion</title>
    <g id="linear-new-other-paper-plane-s-promotion" stroke-width="1" fill-rule="evenodd">
        <path d="M28.9864552,4.16588253 L25.4864552,25.1658825 C25.3737559,25.8420782 24.6295446,26.2069609 24.0259614,25.8819546 L18.1810613,22.7344835 L11.707168,29.2085903 C11.104593,29.8111654 10.0928805,29.4291512 10.0060445,28.6151145 L10.0000613,28.5014835 L10.0000613,18.5014835 C10.0000613,18.1917851 10.143554,17.8995629 10.3886138,17.7101985 L21.3886138,9.21019854 C21.8256284,8.87250541 22.4536531,8.9530214 22.7913463,9.39003604 C23.1290394,9.82705068 23.0485234,10.4550754 22.6115088,10.7927685 L12.0000613,18.9914835 L12.0000613,26.0854835 L17.2929545,20.7943768 C17.5739922,20.513339 17.9909925,20.4281573 18.3550344,20.5665595 L18.4741611,20.6210124 L23.7430613,23.4574835 L26.7250613,5.56848354 L5.86906126,13.6544835 L9.47891339,15.623588 C9.57718176,15.6771889 9.66287225,15.7448787 9.73484482,15.8227813 L8.063,17.129 L3.02120913,14.3793791 C2.27409653,13.9718631 2.34506901,12.8767921 3.13853341,12.5691222 L27.6385334,3.06912223 C28.3610205,2.78897417 29.113848,3.40152553 28.9864552,4.16588253 Z" id="&#36335;&#24452;" fill-rule="nonzero" />
    </g>
</svg>

<svg xmlns="http://www.w3.org/2000/svg" viewBox="0 0 32 32"><path fill="currentColor" d="m28.986 4.166-3.5 21a1 1 0 0 1-1.46.716l-5.845-3.148-6.474 6.475c-.602.602-1.614.22-1.701-.594L10 28.501v-10a1 1 0 0 1 .389-.79l11-8.5a1 1 0 0 1 1.223 1.582L12 18.99v7.094l5.293-5.29a1 1 0 0 1 1.062-.228l.12.054 5.268 2.836 2.982-17.889L5.87 13.654l3.61 1.97a.999.999 0 0 1 .256.199l-1.672 1.306-5.042-2.75a1 1 0 0 1 .118-1.81l24.5-9.5a1 1 0 0 1 1.347 1.097"/></svg>
